X:1
T:La Bidule (polka)
C:Bernard Loffet
L:1/8
Q:420
M:2/2
K:C
[G2C,2][c2C,2][e2C,2][e2C,2]|[d2G,2][c2C,2][B2G,2]G,2|[f2G,2][d2G,2][B2G,2][d2G,2]|[g2C,2][f2G,2][e2C,2][c2C,2]|[G2C,2][c2C,2][e2C,2][e2C,2]|[d2G,2][c2C,2][B2G,2]G,2| \
[f2G,2][d2G,2][B2G,2][d2G,2]|[g2C,2][B2G,2][c2C,2]C,2|[e2C,2][f2G,2][g2C,2]C,2|[f2G,2][e2C,2][d2G,2]G,2|[f2G,2][d2G,2][B2G,2][d2G,2]|[g2C,2][f2G,2][e2C,2][c2C,2]| \
[e2C,2][f2G,2][g2C,2]C,2|[f2G,2][e2C,2][d2G,2]G,2|[f2G,2][d2G,2][B2G,2][d2G,2]|[g2C,2][B2G,2][c2C,2]C,2| \
Z:Created with TablEdit http://www.tabledit.com/ by Bernard Loffet
